app/client/src/assets/icons/blueprintjs/20px/heart.svg

<svg xmlns="http://www.w3.org/2000/svg" xml:space="preserve" viewBox="0 0 20 20"><path fill-rule="evenodd" d="M20 6.25C20 3.35 17.65 1 14.75 1c-1.02 0-1.95.31-2.75.82v-.04c-.09.06-.17.12-.26.19-.04.03-.09.06-.14.1-.68.51-1.24 1.18-1.6 1.96-.4-.86-1.04-1.57-1.8-2.1-.04-.02-.07-.05-.1-.08a7 7 0 0 0-.6-.33c-.13-.04-.23-.1-.35-.15-.05-.02-.1-.05-.15-.07v.02C6.45 1.13 5.87 1 5.25 1A5.25 5.25 0 0 0 0 6.25c0 .09.01.17.01.25H0c0 .06.01.12.02.18s.01.12.02.18C.13 7.89.44 9 1.07 10.17 2.23 12.33 4.1 14.11 7 16.53v.01c.9.75 1.89 1.55 3 2.46.71-.58 1.38-1.12 2-1.63 3.48-2.86 5.64-4.78 6.93-7.18.63-1.17.94-2.27 1.03-3.3.01-.07.01-.14.02-.21 0-.06.01-.11.02-.17h-.01c0-.09.01-.17.01-.26z" clip-rule="evenodd"/></svg>

<?xml version="1.0" encoding="utf-8"?>
<!-- Generator: Adobe Illustrator 22.1.0, SVG Export Plug-In . SVG Version: 6.00 Build 0)  -->
<svg version="1.1" id="Shape_1_1_" xmlns="http://www.w3.org/2000/svg" xmlns:xlink="http://www.w3.org/1999/xlink" x="0px" y="0px"
	 viewBox="0 0 20 20" enable-background="new 0 0 20 20" xml:space="preserve">
<g id="Shape_1">
	<g>
		<path fill-rule="evenodd" clip-rule="evenodd" d="M20,6.25C20,3.35,17.65,1,14.75,1C13.73,1,12.8,1.31,12,1.82V1.78
			c-0.09,0.06-0.17,0.12-0.26,0.19C11.7,2,11.65,2.03,11.6,2.07c-0.68,0.51-1.24,1.18-1.6,1.96C9.6,3.17,8.96,2.46,8.2,1.93
			c-0.04-0.02-0.07-0.05-0.1-0.08c-0.19-0.12-0.4-0.23-0.6-0.33C7.37,1.48,7.27,1.42,7.15,1.37C7.1,1.35,7.05,1.32,7,1.3v0.02
			C6.45,1.13,5.87,1,5.25,1C2.35,1,0,3.35,0,6.25C0,6.34,0.01,6.42,0.01,6.5H0c0,0.06,0.01,0.12,0.02,0.18S0.03,6.8,0.04,6.86
			C0.13,7.89,0.44,9,1.07,10.17C2.23,12.33,4.1,14.11,7,16.53v0.01c0.9,0.75,1.89,1.55,3,2.46c0.71-0.58,1.38-1.12,2-1.63v0
			c3.48-2.86,5.64-4.78,6.93-7.18c0.63-1.17,0.94-2.27,1.03-3.3c0.01-0.07,0.01-0.14,0.02-0.21c0-0.06,0.01-0.11,0.02-0.17h-0.01
			C19.99,6.42,20,6.34,20,6.25z"/>
	</g>
</g>
</svg>
